X:216
T: NICHTS KANN AUF ERDEN VERGLICHEN WERDEN  DES SCHAEFERS LUST
N: Z0215
O: Europa, Mitteleuropa, Deutschland
R: Staende -, Schaefer - Lied
M: 3/4
L: 1/16
K: Bb
F2B2d2 | c3dB2B2d2f2 | e3fd2f2gfed | c4z2
f2g2f2 | e3dc2e2f2e2 | d3cB2
B2e2g2 | f2b2f2d2e2g2 | f2b2f2fed2c2 | B4z2
f2g2f2 | e3dc2e2f2e2 | d3cB2
B2e2g2 | f2b2f2d2e2g2 | f2b2f2fed2c2 | B4z2

